X:1
T:Abendglocke
T:Friedrich Silcher
T:Johann Nepomuk Vogl
T:Abendglocke
T:CPDL   —   Creative Commons Attribution Non Commercial 3.0
C:Friedrich Silcher
Z:Johann Nepomuk Vogl
Z:CPDL   —   Creative Commons Attribution Non Commercial 3.0
%%score [ ( 1 2 ) ( 3 4 ) ]
L:1/8
Q:1/4=80
M:4/4
K:Bb
V:1 treble-8 nm="Tenor"
V:2 treble-8 
V:3 bass nm="Bass"
V:4 bass 
V:1
"^Andante" f>e | d3 d ^c2 d2 |!>(! d>=c B2!>)! z2 d=e | f2 =e2 d2 ^c2 | d4 z2 d>d | _e3 e f3 c | %6
w: 1.  Wan- d'rer|zieht auf fer- nen|We- * gen, in der|Brust der Sehn- sucht|Qual; horch, da|tönt die A- bend-|
w: 2.  Und der|Wan- d'rer steht und|lau- * schet, auf den|Stab ge- stützt, ihr|zu: „A- bend-|glöck- chen, A- bend-|
w: 3.  „Wiegst zur|Ru- he al- le,|al- * le, und mit|ih- nen Lust und|Schmerz; wann, o|Glöck- chen, rufst du|
 e>d d2 d3 c | B2 c2 d2 e>c | f4 g3 d | f2 e2 d3 c | d4 z2 |] %11
w: glo- * cke lieb- lich|durch das stil- le _|Tal, lieb- lich|durch das stil- le|Tal.|
w: glöck- * chen, wiegst nun|Alt und Jung zur _|Ruh', wiegst nun|Alt und Jung zur|Ruh'.“|
w: end- * lich auch zur|Ruh' mein mü- des _|Herz, auch zur|Ruh' mein mü- des|Herz?“|
V:2
 d>c | B3 B B2 B2 | A2 B2 x2 dd | d2 B2 A2 A2 | A4 x2 A>A | A3 A A3 A | c>B B2 A3 A | G2 A2 B2 A2 | %8
 B4 d2 =B2 | d2 c2 _B3 A | B4 x2 |] %11
V:3
 z2 | F,>F, F,F, =E,2 F,2 |!>(! _E,2 D,2!>)! z2 F,G, | A,2 G,2 F,2 =E,>G, | F,4 z2 F,>F, | %5
w: |Wan- d'rer zieht auf fer- nen|We- gen, * *|||
w: |Und der Wan- d'rer steht und|lau- schet, * *|||
w: |„Wiegst zur Ru- he al- le,|al- le, * *|||
 F,3 F, F,3 F, | F,2 F,2 ^F,2 D,2 | D,2 =F,2 F,2 F,2 | (F,2 B,2) G,2 G,2 | G,2 G,2 F,2 F,2 | %10
w: |||||
w: |||||
w: |||||
 F,4 z2 |] %11
w: |
w: |
w: |
V:4
 x2 | B,,>B,, B,,B,, B,,2 B,,2 | F,,2 B,,2 x2 B,,B,, | A,,2 A,,2 A,,2 A,,2 | D,4 x2 D,>D, | %5
 C,3 C, F,,3 F,, | B,,2 B,,2 D,2 D,2 | G,,2 F,,2 B,,2 C,>E, | D,4 =B,,2 G,,2 | C,2 C,2 F,2 F,,2 | %10
 B,,4 x2 |] %11

